!!!COM:	Bach, Johann Sebastian
!!!CDT:	1685/02/21/-1750/07/28/
!!!OTL@@DE:	Was bist du doch, o Seele, so betr&uuml;bet
!!!SCT:	BWV 424
!!!PC#:	193
!!!AGN:	chorale
**kern	**kern	**kern	**kern
*ICvox	*ICvox	*ICvox	*ICvox
*Ibass	*Itenor	*Ialto	*Isoprn
*I"Bass	*I"Tenor	*I"Alto	*I"Soprano
*>[A,A,B]	*>[A,A,B]	*>[A,A,B]	*>[A,A,B]
*>norep[A,B]	*>norep[A,B]	*>norep[A,B]	*>norep[A,B]
*>A	*>A	*>A	*>A
*clefF4	*clefGv2	*clefG2	*clefG2
*k[]	*k[]	*k[]	*k[]
*a:	*a:	*a:	*a:
*M4/4	*M4/4	*M4/4	*M4/4
*met(c)	*met(c)	*met(c)	*met(c)
*MM100	*MM100	*MM100	*MM100
=1-	=1-	=1-	=1-
4r	4ry	4ry	4r
4AA	8cL	4a	4ee
.	8dJ	.	.
4A	4e	4a	4.cc
4E	8.eL	4g#	.
.	.	.	8b
.	16dJk	.	.
=2	=2	=2	=2
4AA;	4c;	4e;	4a;
4A	4c	4a	4ee
4D	4B	4a	4ff
4E	4B	4g#	8eeL
.	.	.	8ddJ
=3	=3	=3	=3
4A	8AL	4e	4cc
.	8c	.	.
4F	8B	4a	4dd
.	8AJ	.	.
4E	4B	4g#	4ee
4E;	4B;	4g#;	4ee;
=4:|!	=4:|!	=4:|!	=4:|!
*>B	*>B	*>B	*>B
4r	4ry	4ry	4r
4AA	4e	4a	4cc
2BB	4d	4gnX	4.dd
.	4d	[4f	.
.	.	.	8g
=5	=5	=5	=5
2C;	2c;	4f]	2g;
.	.	4e;	.
4r	4ry	4ry	4r
4BB	4d	4g	4dd
=6	=6	=6	=6
4C	4c	4g	4.ee
4E	8cL	4g	.
.	8B-J	.	8cc
2F;	2A;	2f;	2cc;
=7	=7	=7	=7
4r	4ry	4ry	4r
4E	4c#	4g	4ee
4D	[4d	8fL	4ff
.	.	8aJ	.
4E	8dL]	4g#	4ee
.	[8cJ	.	.
=8	=8	=8	=8
4F	8cL]	8aL	4dd
.	[8BJ	8dJ	.
4E	8BL]	4e	4cc
.	[8AJ	.	.
4D	8AL]	4f	4.b
.	[8G#J	.	.
4C	8G#L]	4e	.
.	8AJ	.	8a
=9	=9	=9	=9
4BB	4B	4d	8g#L
.	.	.	8eeJ
4AA	4e	[4a	8ddL
.	.	.	8ccJ
4E	4e	4a]	2b
4EE	8eL	4g#	.
.	8dJ	.	.
=10	=10	=10	=10
2AA;	2c#;	2e;	2a;
2r	2ry	2ry	2r
==	==	==	==
*-	*-	*-	*-
!!!hum2abc: -Q ''
!!!title: @{PC#}. @{OTL@@DE}
!!!YOR1: 371 vierstimmige Choralges&auml;nge von Johann Sebastian Bach, 
!!!YOR2: 4th ed. by Alfred D&ouml;rffel (Leipzig: Breitkopf und H&auml;rtel, 
!!!YOR2: c.1875). 178 pp. Plate "V.A.10".  reprint: J.S. Bach, 371 Four-Part 
!!!YOR4: Chorales (New York: Associated Music Publishers, Inc., c.1940).
!!!SMS: B&H, 4th ed, Alfred D&ouml;rffel, c.1875, plate V.A.10
!!!EED:  Craig Stuart Sapp
!!!EEV:  2009/05/22
